img/svg/icon-font/bell.svg

<svg width="22" height="22" viewBox="0 0 22 22" fill="none" xmlns="http://www.w3.org/2000/svg">
<path d="M19.5435 14.4287C19.4958 14.41 18.8255 14.1399 18.3328 13.5202C18.0375 13.1487 17.4969 13.087 17.1253 13.3824C16.7538 13.6778 16.6921 14.2184 16.9875 14.5899C17.4317 15.1486 17.9483 15.5203 18.3428 15.7486C18.2768 16.1187 18.1376 16.5323 17.8939 16.8834C17.5113 17.435 16.9709 17.7031 16.2418 17.7031H5.75824C4.42913 17.7031 3.83608 16.5895 3.66463 15.744C3.91832 15.5972 4.22275 15.392 4.52787 15.1174C5.50116 14.2418 6.01562 13.0855 6.01562 11.7734V8.76562C6.01562 6.05378 8.21386 3.81799 10.9159 3.78172C10.9234 3.78164 10.9306 3.78061 10.9381 3.7803C10.9444 3.78043 10.9506 3.78125 10.957 3.78125C10.9797 3.78125 11.0019 3.77957 11.0241 3.77786C11.044 3.77949 11.0639 3.78142 11.0841 3.78168C13.8098 3.81829 16.0273 6.05408 16.0273 8.76562V9.96875C16.0273 10.4434 16.4121 10.8281 16.8867 10.8281C17.3614 10.8281 17.7461 10.4434 17.7461 9.96875V8.76562C17.7461 5.35764 15.1449 2.5089 11.8164 2.11045V0.859375C11.8164 0.384742 11.4317 0 10.957 0C10.4824 0 10.0977 0.384742 10.0977 0.859375V2.12115C8.63436 2.31541 7.28161 2.98878 6.22591 4.06201C4.98193 5.32654 4.29688 6.99699 4.29688 8.76562V11.7734C4.29688 13.6925 2.56786 14.3861 2.45644 14.4287C2.1111 14.5488 1.89062 14.8706 1.89062 15.2365C1.89062 16.1384 2.21195 17.1245 2.75013 17.8744C3.46637 18.8723 4.53471 19.4219 5.75824 19.4219H8.42188C8.42188 20.8435 9.57842 22 11 22C12.4216 22 13.5781 20.8435 13.5781 19.4219H16.2418C17.8807 19.4219 18.8127 18.5742 19.3061 17.8632C20.0311 16.8183 20.1094 15.6781 20.1094 15.2365C20.1094 14.8704 19.889 14.5487 19.5435 14.4287ZM11 20.2812C10.5261 20.2812 10.1406 19.8957 10.1406 19.4219H11.8594C11.8594 19.8957 11.4739 20.2812 11 20.2812Z" fill="#4C51CB"/>
</svg>

<svg width="22" height="22" fill="none" xmlns="http://www.w3.org/2000/svg"><path d="M19.544 14.429a3.176 3.176 0 01-1.211-.909.86.86 0 10-1.345 1.07c.444.559.96.93 1.355 1.159-.066.37-.205.783-.45 1.134-.382.552-.922.82-1.651.82H5.758c-1.329 0-1.922-1.113-2.093-1.959a5.16 5.16 0 00.863-.627 4.386 4.386 0 001.488-3.344V8.766c0-2.712 2.198-4.948 4.9-4.984l.022-.002.019.001a.869.869 0 00.067-.003l.06.004c2.726.036 4.943 2.272 4.943 4.984v1.203a.86.86 0 001.72 0V8.766c0-3.408-2.602-6.257-5.93-6.656V.86a.86.86 0 10-1.72 0v1.26a6.638 6.638 0 00-3.871 1.941 6.67 6.67 0 00-1.93 4.704v3.007c0 1.92-1.728 2.613-1.84 2.656a.844.844 0 00-.565.807c0 .902.32 1.889.86 2.638a3.617 3.617 0 003.007 1.548h2.664A2.581 2.581 0 0011 22a2.581 2.581 0 002.578-2.578h2.664c1.639 0 2.57-.848 3.064-1.559.725-1.045.803-2.185.803-2.627a.844.844 0 00-.566-.807zM11 20.28a.86.86 0 01-.86-.86h1.72a.86.86 0 01-.86.86z" fill="#4C51CB"/></svg>
